storage/app/icons/phosphoricons/duotone/film-script-duotone.svg

<svg xmlns="http://www.w3.org/2000/svg" fill="currentColor" viewBox="0 0 256 256"><path d="M208 40v176a8 8 0 0 1-8 8H56a8 8 0 0 1-8-8V40a8 8 0 0 1 8-8h144a8 8 0 0 1 8 8" opacity=".2"/><path d="M200 24H56a16 16 0 0 0-16 16v176a16 16 0 0 0 16 16h144a16 16 0 0 0 16-16V40a16 16 0 0 0-16-16m0 192H56V40h144zM96 80a12 12 0 1 1-12-12 12 12 0 0 1 12 12m0 96a12 12 0 1 1-12-12 12 12 0 0 1 12 12m0-48a12 12 0 1 1-12-12 12 12 0 0 1 12 12"/></svg>

<svg xmlns="http://www.w3.org/2000/svg" viewBox="0 0 256 256" fill="currentColor"><path d="M208,40V216a8,8,0,0,1-8,8H56a8,8,0,0,1-8-8V40a8,8,0,0,1,8-8H200A8,8,0,0,1,208,40Z" opacity="0.2"/><path d="M200,24H56A16,16,0,0,0,40,40V216a16,16,0,0,0,16,16H200a16,16,0,0,0,16-16V40A16,16,0,0,0,200,24Zm0,192H56V40H200V216ZM96,80A12,12,0,1,1,84,68,12,12,0,0,1,96,80Zm0,96a12,12,0,1,1-12-12A12,12,0,0,1,96,176Zm0-48a12,12,0,1,1-12-12A12,12,0,0,1,96,128Z"/></svg>
